Yosa-Max-Dark/actions/22x22/draw-donut.svg

<?xml version="1.0" encoding="UTF-8"?>
<svg id="svg4" version="1.1" viewBox="0 0 22 22" xmlns="http://www.w3.org/2000/svg">
 <path id="path2" d="m11 3c-4.432 0-8 3.568-8 8s3.568 8 8 8 8-3.568 8-8-3.568-8-8-8zm0 4.1953125c2.108017 0 3.804688 1.6966706 3.804688 3.8046875-1e-6 2.108017-1.696671 3.804688-3.804688 3.804688-2.1080169-1e-6 -3.8046875-1.696671-3.8046875-3.804688 0-2.1080169 1.6966706-3.8046875 3.8046875-3.8046875z" style="fill:#dfdfdf"/>
</svg>

<?xml version="1.0" encoding="UTF-8" standalone="no"?>
<svg
   xmlns:dc="http://purl.org/dc/elements/1.1/"
   xmlns:cc="http://creativecommons.org/ns#"
   xmlns:rdf="http://www.w3.org/1999/02/22-rdf-syntax-ns#"
   xmlns:svg="http://www.w3.org/2000/svg"
   xmlns="http://www.w3.org/2000/svg"
   id="svg4"
   version="1.1"
   viewBox="0 0 22 22">
  <metadata
     id="metadata10">
    <rdf:RDF>
      <cc:Work
         rdf:about="">
        <dc:format>image/svg+xml</dc:format>
        <dc:type
           rdf:resource="http://purl.org/dc/dcmitype/StillImage" />
        <dc:title></dc:title>
      </cc:Work>
    </rdf:RDF>
  </metadata>
  <defs
     id="defs8" />
  <path
     id="path2"
     d="M 11 3 C 6.568 3 3 6.568 3 11 C 3 15.432 6.568 19 11 19 C 15.432 19 19 15.432 19 11 C 19 6.568 15.432 3 11 3 z M 11 7.1953125 C 13.108017 7.1953125 14.804688 8.8919831 14.804688 11 C 14.804687 13.108017 13.108017 14.804688 11 14.804688 C 8.8919831 14.804687 7.1953125 13.108017 7.1953125 11 C 7.1953125 8.8919831 8.8919831 7.1953125 11 7.1953125 z "
     style="fill:#dfdfdf" />
</svg>
